spear-sim/spear/examples/open_loop_control_fetch/actions.debug_0000.csv
joint.wheel_joint_r,joint.wheel_joint_l,joint.arm_joint_0,joint.arm_joint_1,joint.arm_joint_2,joint.arm_joint_3,joint.arm_joint_4,joint.arm_joint_5,joint.arm_joint_6,joint.gripper_finger_joint_r,joint.gripper_finger_joint_l,joint.head_pan_joint,joint.head_tilt_joint
0.00000,-0.00000,0.00000,0.00000,0.00000,0.00000,0.00000,0.00000,0.00000,1.00000,1.00000,0.00000,0.00000
0.00000,-0.00000,0.00000,0.00000,0.00000,0.00000,0.00000,0.00000,0.00000,1.00000,1.00000,0.00000,0.00000
0.00000,-0.00000,0.00000,0.00000,0.00000,0.00000,0.00000,0.00000,0.00000,1.00000,1.00000,0.00000,0.00000
0.00000,-0.00000,0.00000,0.00000,0.00000,0.00000,0.00000,0.00000,0.00000,1.00000,1.00000,0.00000,0.00000
0.00000,-0.00000,0.00000,0.00000,0.00000,0.00000,0.00000,0.00000,0.00000,1.00000,1.00000,0.00000,0.00000
0.00000,-0.00000,0.00000,0.00000,0.00000,0.00000,0.00000,0.00000,0.00000,1.00000,1.00000,0.00000,0.00000
0.00000,-0.00000,0.00000,0.00000,0.00000,0.00000,0.00000,0.00000,0.00000,1.00000,1.00000,0.00000,0.00000
0.00000,-0.00000,0.00000,0.00000,0.00000,0.00000,0.00000,0.00000,0.00000,1.00000,1.00000,0.00000,0.00000
0.00000,-0.00000,0.00000,0.00000,0.00000,0.00000,0.00000,0.00000,0.00000,1.00000,1.00000,0.00000,0.00000
0.00000,-0.00000,0.00000,0.00000,0.00000,0.00000,0.00000,0.00000,0.00000,1.00000,1.00000,0.00000,0.00000
-0.00100,0.00100,0.00000,0.00000,0.00000,0.00000,0.00000,0.00000,0.00000,1.00000,1.00000,0.00000,0.00000
-0.00100,0.00100,0.00000,0.00000,0.00000,0.00000,0.00000,0.00000,0.00000,1.00000,1.00000,0.00000,0.00000
-0.00100,0.00100,0.00000,0.00000,0.00000,0.00000,0.00000,0.00000,0.00000,1.00000,1.00000,0.00000,0.00000
-0.00100,0.00100,0.00000,0.00000,0.00000,0.00000,0.00000,0.00000,0.00000,1.00000,1.00000,0.00000,0.00000
-0.01200,-0.01200,0.00000,0.00000,0.00000,0.00000,0.00000,0.00000,0.00000,1.00000,1.00000,0.00000,0.00000
-0.01200,-0.01200,0.00000,-0.00200,0.00000,0.00000,0.00000,0.00000,0.00000,1.00000,1.00000,0.00000,0.00000
-0.01200,-0.01200,0.00000,-0.00400,0.00000,0.00000,0.00000,0.00000,0.00000,1.00000,1.00000,0.00000,0.00000
-0.01200,-0.01200,0.00000,-0.00600,0.00000,0.00000,0.00000,0.00000,0.00000,1.00000,1.00000,0.00000,0.00000
-0.01200,-0.01200,0.00000,-0.00800,0.00000,0.00000,0.00000,0.00000,0.00000,1.00000,1.00000,0.00000,0.00000
-0.01200,-0.01200,0.00000,-0.01000,0.00000,0.00000,0.00000,0.00000,0.00000,1.00000,1.00000,0.00000,0.00000
-0.01200,-0.01200,0.00000,-0.01200,0.00000,0.00000,0.00000,0.00000,0.00000,1.00000,1.00000,0.00000,0.00000
-0.01200,-0.01200,0.00000,-0.01400,0.00000,0.00000,0.00000,0.00000,0.00000,1.00000,1.00000,0.00000,0.00000
-0.01200,-0.01200,0.00000,-0.01600,0.00000,0.00000,0.00000,0.00000,0.00000,1.00000,1.00000,0.00000,0.00000
-0.01200,-0.01200,0.00000,-0.01800,0.00000,0.00000,0.00000,0.00000,0.00000,1.00000,1.00000,0.00000,0.00000
-0.01200,-0.01200,0.00000,-0.02000,0.00000,0.00000,0.00000,0.00000,0.00000,1.00000,1.00000,0.00000,0.00000
-0.01200,-0.01200,0.00000,-0.02200,0.00000,0.00000,0.00000,0.00000,0.00000,1.00000,1.00000,0.00000,0.00000
-0.01200,-0.01200,0.00000,-0.02400,0.00000,0.00000,0.00000,0.00000,0.00000,1.00000,1.00000,0.00000,0.00000
-0.01200,-0.01200,0.00000,-0.02600,0.00000,0.00000,0.00000,0.00000,0.00000,1.00000,1.00000,0.00000,0.00000
-0.01200,-0.01200,0.00000,-0.02800,0.00000,0.00000,0.00000,0.00000,0.00000,1.00000,1.00000,0.00000,0.00000
-0.01200,-0.01200,0.00000,-0.03000,0.00000,0.00000,0.00000,0.00000,0.00000,1.00000,1.00000,0.00000,0.00000
-0.01200,-0.01200,0.00000,-0.03200,0.00000,0.00000,0.00000,0.00000,0.00000,1.00000,1.00000,0.00000,0.00000
-0.01200,-0.01200,0.00000,-0.03400,0.00000,0.00000,0.00000,0.00000,0.00000,1.00000,1.00000,0.00000,0.00000
-0.01200,-0.01200,0.00000,-0.03600,0.00000,0.00000,0.00000,0.00000,0.00000,1.00000,1.00000,0.00000,0.00000
-0.01200,-0.01200,0.00000,-0.03800,0.00000,0.00000,0.00000,0.00000,0.00000,1.00000,1.00000,0.00000,0.00000
-0.01200,-0.01200,0.00000,-0.04000,0.00000,0.00000,0.00000,0.00000,0.00000,1.00000,1.00000,0.00000,0.00000
-0.01200,-0.01200,0.00000,-0.04200,0.00000,0.00000,0.00000,0.00000,0.00000,1.00000,1.00000,0.00000,0.00000
-0.01200,-0.01200,0.00000,-0.04400,0.00000,0.00000,0.00000,0.00000,0.00000,1.00000,1.00000,0.00000,0.00000
-0.01200,-0.01200,0.00000,-0.04600,0.00000,0.00000,0.00000,0.00000,0.00000,1.00000,1.00000,0.00000,0.00000
-0.01200,-0.01200,0.00000,-0.04800,0.00000,0.00000,0.00000,0.00000,0.00000,1.00000,1.00000,0.00000,0.00000
-0.01200,-0.01200,0.00000,-0.05000,0.00000,0.00000,0.00000,0.00000,0.00000,1.00000,1.00000,0.00000,0.00000
-0.01200,-0.01200,0.00000,-0.05200,0.00000,0.00000,0.00000,0.00000,0.00000,1.00000,1.00000,0.00000,0.00000
-0.01200,-0.01200,0.00000,-0.05400,0.00000,0.00000,0.00000,0.00000,0.00000,1.00000,1.00000,0.00000,0.00000
-0.01200,-0.01200,0.00000,-0.05600,0.00000,0.00000,0.00000,0.00000,0.00000,1.00000,1.00000,0.00000,0.00000
-0.01200,-0.01200,0.00000,-0.05800,0.00000,0.00000,0.00000,0.00000,0.00000,1.00000,1.00000,0.00000,0.00000
-0.01200,-0.01200,0.00000,-0.06000,0.00000,0.00000,0.00000,0.00000,0.00000,1.00000,1.00000,0.00000,0.00000
-0.01200,-0.01200,0.00000,-0.06200,0.00000,0.00000,0.00000,0.00000,0.00000,1.00000,1.00000,0.00000,0.00000
-0.01200,-0.01200,0.00000,-0.06400,0.00000,0.00000,0.00000,0.00000,0.00000,1.00000,1.00000,0.00000,0.00000
-0.01200,-0.01200,0.00000,-0.06600,0.00000,0.00000,0.00000,0.00000,0.00000,1.00000,1.00000,0.00000,0.00000
-0.01200,-0.01200,0.00000,-0.06800,0.00000,0.00000,0.00000,0.00000,0.00000,1.00000,1.00000,0.00000,0.00000
-0.01200,-0.01200,0.00000,-0.07000,0.00000,0.00000,0.00000,0.00000,0.00000,1.00000,1.00000,0.00000,0.00000
-0.01200,-0.01200,0.00000,-0.07200,0.00000,0.00000,0.00000,0.00000,0.00000,1.00000,1.00000,0.00000,0.00000
-0.01200,-0.01200,0.00000,-0.07400,0.00000,0.00000,0.00000,0.00000,0.00000,1.00000,1.00000,0.00000,0.00000
-0.01200,-0.01200,0.00000,-0.07600,0.00000,0.00000,0.00000,0.00000,0.00000,1.00000,1.00000,0.00000,0.00000
-0.01200,-0.01200,0.00000,-0.07800,0.00000,0.00000,0.00000,0.00000,0.00000,1.00000,1.00000,0.00000,0.00000
-0.01200,-0.01200,0.00000,-0.08000,0.00000,0.00000,0.00000,0.00000,0.00000,1.00000,1.00000,0.00000,0.00000
-0.01200,-0.01200,0.00000,-0.08200,0.00000,0.00000,0.00000,0.00000,0.00000,1.00000,1.00000,0.00000,0.00000
-0.01200,-0.01200,0.00000,-0.08400,0.00000,0.00000,0.00000,0.00000,0.00000,1.00000,1.00000,0.00000,0.00000
-0.01200,-0.01200,0.00000,-0.08600,0.00000,0.00000,0.00000,0.00000,0.00000,1.00000,1.00000,0.00000,0.00000
-0.01200,-0.01200,0.00000,-0.08800,0.00000,0.00000,0.00000,0.00000,0.00000,1.00000,1.00000,0.00000,0.00000
-0.01200,-0.01200,0.00000,-0.09000,0.00000,0.00000,0.00000,0.00000,0.00000,1.00000,1.00000,0.00000,0.00000
-0.01200,-0.01200,0.00000,-0.09200,0.00000,0.00000,0.00000,0.00000,0.00000,1.00000,1.00000,0.00000,0.00000
-0.01200,-0.01200,0.00000,-0.09400,0.00000,0.00000,0.00000,0.00000,0.00000,1.00000,1.00000,0.00000,0.00000
-0.01200,-0.01200,0.00000,-0.09600,0.00000,0.00000,0.00000,0.00000,0.00000,1.00000,1.00000,0.00000,0.00000
-0.01200,-0.01200,0.00000,-0.09800,0.00000,0.00000,0.00000,0.00000,0.00000,1.00000,1.00000,0.00000,0.00000
-0.01200,-0.01200,0.00000,-0.10000,0.00000,0.00000,0.00000,0.00000,0.00000,1.00000,1.00000,0.00000,0.00000
-0.01200,-0.01200,0.00000,-0.10200,0.00000,0.00000,0.00000,0.00000,0.00000,1.00000,1.00000,0.00000,0.00000
-0.01200,-0.01200,0.00000,-0.10400,0.00000,0.00000,0.00000,0.00000,0.00000,1.00000,1.00000,0.00000,0.00000
-0.01200,-0.01200,0.00000,-0.10600,0.00000,0.00000,0.00000,0.00000,0.00000,1.00000,1.00000,0.00000,0.00000
-0.01200,-0.01200,0.00000,-0.10800,0.00000,0.00000,0.00000,0.00000,0.00000,1.00000,1.00000,0.00000,0.00000
-0.01200,-0.01200,0.00000,-0.11000,0.00000,0.00000,0.00000,0.00000,0.00000,1.00000,1.00000,0.00000,0.00000
-0.01200,-0.01200,0.00000,-0.11200,0.00000,0.00000,0.00000,0.00000,0.00000,1.00000,1.00000,0.00000,0.00000
-0.01200,-0.01200,0.00000,-0.11400,0.00000,0.00000,0.00000,0.00000,0.00000,1.00000,1.00000,0.00000,0.00000
-0.01200,-0.01200,0.00000,-0.11600,0.00000,0.00000,0.00000,0.00000,0.00000,1.00000,1.00000,0.00000,0.00000
-0.01200,-0.01200,0.00000,-0.11800,0.00000,0.00000,0.00000,0.00000,0.00000,1.00000,1.00000,0.00000,0.00000
-0.01200,-0.01200,0.00000,-0.12000,0.00000,0.00000,0.00000,0.00000,0.00000,1.00000,1.00000,0.00000,0.00000
-0.01200,-0.01200,0.00000,-0.12200,0.00000,0.00000,0.00000,0.00000,0.00000,1.00000,1.00000,0.00000,0.00000
-0.01200,-0.01200,0.00000,-0.12400,0.00000,0.00000,0.00000,0.00000,0.00000,1.00000,1.00000,0.00000,0.00000
-0.01200,-0.01200,0.00000,-0.12600,0.00000,0.00000,0.00000,0.00000,0.00000,1.00000,1.00000,0.00000,0.00000
-0.01200,-0.01200,0.00000,-0.12800,0.00000,0.00000,0.00000,0.00000,0.00000,1.00000,1.00000,0.00000,0.00000
-0.01200,-0.01200,0.00000,-0.13000,0.00000,0.00000,0.00000,0.00000,0.00000,1.00000,1.00000,0.00000,0.00000
-0.01200,-0.01200,0.00000,-0.13200,0.00000,0.00000,0.00000,0.00000,0.00000,1.00000,1.00000,0.00000,0.00000
-0.01200,-0.01200,0.00000,-0.13400,0.00000,0.00000,0.00000,0.00000,0.00000,1.00000,1.00000,0.00000,0.00000
-0.01200,-0.01200,0.00000,-0.13600,0.00000,0.00000,0.00000,0.00000,0.00000,1.00000,1.00000,0.00000,0.00000
-0.01200,-0.01200,0.00000,-0.13800,0.00000,0.00000,0.00000,0.00000,0.00000,1.00000,1.00000,0.00000,0.00000
-0.01200,-0.01200,0.00000,-0.14000,0.00000,0.00000,0.00000,0.00000,0.00000,1.00000,1.00000,0.00000,0.00000
-0.01200,-0.01200,0.00000,-0.14200,0.00000,0.00000,0.00000,0.00000,0.00000,1.00000,1.00000,0.00000,0.00000
-0.01200,-0.01200,0.00000,-0.14400,0.00000,0.00000,0.00000,0.00000,0.00000,1.00000,1.00000,0.00000,0.00000
-0.01200,-0.01200,0.00000,-0.14600,0.00000,0.00000,0.00000,0.00000,0.00000,1.00000,1.00000,0.00000,0.00000
-0.01200,-0.01200,0.00000,-0.14800,0.00000,0.00000,0.00000,0.00000,0.00000,1.00000,1.00000,0.00000,0.00000
-0.01200,-0.01200,0.00000,-0.15000,0.00000,0.00000,0.00000,0.00000,0.00000,1.00000,1.00000,0.00000,0.00000
-0.01200,-0.01200,0.00000,-0.15200,0.00000,0.00000,0.00000,0.00000,0.00000,1.00000,1.00000,0.00000,0.00000
-0.01200,-0.01200,0.00000,-0.15400,0.00000,0.00000,0.00000,0.00000,0.00000,1.00000,1.00000,0.00000,0.00000
-0.01200,-0.01200,0.00000,-0.15600,0.00000,0.00000,0.00000,0.00000,0.00000,1.00000,1.00000,0.00000,0.00000
-0.01200,-0.01200,0.00000,-0.15800,0.00000,0.00000,0.00000,0.00000,0.00000,1.00000,1.00000,0.00000,0.00000
-0.01200,-0.01200,0.00000,-0.16000,0.00000,0.00000,0.00000,0.00000,0.00000,1.00000,1.00000,0.00000,0.00000
-0.01200,-0.01200,0.00000,-0.16200,0.00000,0.00000,0.00000,0.00000,0.00000,1.00000,1.00000,0.00000,0.00000
-0.01200,-0.01200,0.00000,-0.16400,0.00000,0.00000,0.00000,0.00000,0.00000,1.00000,1.00000,0.00000,0.00000
-0.01200,-0.01200,0.00000,-0.16600,0.00000,0.00000,0.00000,0.00000,0.00000,1.00000,1.00000,0.00000,0.00000
-0.01200,-0.01200,0.00000,-0.16800,0.00000,0.00000,0.00000,0.00000,0.00000,1.00000,1.00000,0.00000,0.00000
-0.01200,-0.01200,0.00000,-0.17000,0.00000,0.00000,0.00000,0.00000,0.00000,1.00000,1.00000,0.00000,0.00000
-0.01200,-0.01200,0.00000,-0.17200,0.00000,0.00000,0.00000,0.00000,0.00000,1.00000,1.00000,0.00000,0.00000
-0.01200,-0.01200,0.00000,-0.17400,0.00000,0.00000,0.00000,0.00000,0.00000,1.00000,1.00000,0.00000,0.00000
-0.01200,-0.01200,0.00000,-0.17600,0.00000,0.00000,0.00000,0.00000,0.00000,1.00000,1.00000,0.00000,0.00000
-0.01200,-0.01200,0.00000,-0.17800,0.00000,0.00000,0.00000,0.00000,0.00000,1.00000,1.00000,0.00000,0.00000
-0.01200,-0.01200,0.00000,-0.18000,0.00000,0.00000,0.00000,0.00000,0.00000,1.00000,1.00000,0.00000,0.00000
-0.01200,-0.01200,0.00000,-0.18200,0.00000,0.00000,0.00000,0.00000,0.00000,1.00000,1.00000,0.00000,0.00000
-0.01200,-0.01200,0.00000,-0.18400,0.00000,0.00000,0.00000,0.00000,0.00000,1.00000,1.00000,0.00000,0.00000
-0.01200,-0.01200,0.00000,-0.18600,0.00000,0.00000,0.00000,0.00000,0.00000,1.00000,1.00000,0.00000,0.00000
-0.01200,-0.01200,0.00000,-0.18800,0.00000,0.00000,0.00000,0.00000,0.00000,1.00000,1.00000,0.00000,0.00000
-0.01200,-0.01200,0.00000,-0.19000,0.00000,0.00000,0.00000,0.00000,0.00000,1.00000,1.00000,0.00000,0.00000
-0.01200,-0.01200,0.00000,-0.19200,0.00000,0.00000,0.00000,0.00000,0.00000,1.00000,1.00000,0.00000,0.00000
-0.01200,-0.01200,0.00000,-0.19400,0.00000,0.00000,0.00000,0.00000,0.00000,1.00000,1.00000,0.00000,0.00000
-0.01200,-0.01200,0.00000,-0.19600,0.00000,0.00000,0.00000,0.00000,0.00000,1.00000,1.00000,0.00000,0.00000
-0.01200,-0.01200,0.00000,-0.19800,0.00000,0.00000,0.00000,0.00000,0.00000,1.00000,1.00000,0.00000,0.00000
0.00000,-0.00000,0.00000,-0.20000,0.00000,0.00000,0.00000,0.00000,0.00000,-1.00000,-1.00000,0.00000,0.00000
0.00000,-0.00000,0.00000,-0.20000,0.00000,0.00000,0.00000,0.00000,0.00000,-1.00000,-1.00000,0.00000,0.00000
0.00000,-0.00000,0.00000,-0.20000,0.00000,0.00000,0.00000,0.00000,0.00000,-1.00000,-1.00000,0.00000,0.00000
0.00000,-0.00000,0.00000,-0.20000,0.00000,0.00000,0.00000,0.00000,0.00000,-1.00000,-1.00000,0.00000,0.00000
0.00000,-0.00000,0.00000,-0.20000,0.00000,0.00000,0.00000,0.00000,0.00000,-1.00000,-1.00000,0.00000,0.00000
0.00000,-0.00000,0.00000,-0.20000,0.00000,0.00000,0.00000,0.00000,0.00000,-1.00000,-1.00000,0.00000,0.00000
0.00000,-0.00000,0.00000,-0.20000,0.00000,0.00000,0.00000,0.00000,0.00000,-1.00000,-1.00000,0.00000,0.00000
0.00000,-0.00000,0.00000,-0.20000,0.00000,0.00000,0.00000,0.00000,0.00000,-1.00000,-1.00000,0.00000,0.00000
0.00000,-0.00000,0.00000,-0.20000,0.00000,0.00000,0.00000,0.00000,0.00000,-1.00000,-1.00000,0.00000,0.00000
0.00000,-0.00000,0.00000,-0.20000,0.00000,0.00000,0.00000,0.00000,0.00000,-1.00000,-1.00000,0.00000,0.00000
0.00000,-0.00000,0.00000,-0.20000,0.00000,0.00000,0.00000,0.00000,0.00000,-1.00000,-1.00000,0.00000,0.00000
0.00000,-0.00000,0.00000,-0.20000,0.00000,0.00000,0.00000,0.00000,0.00000,-1.00000,-1.00000,0.00000,0.00000
0.00000,-0.00000,0.00000,-0.20000,0.00000,0.00000,0.00000,0.00000,0.00000,-1.00000,-1.00000,0.00000,0.00000
0.00000,-0.00000,0.00000,-0.20000,0.00000,0.00000,0.00000,0.00000,0.00000,-1.00000,-1.00000,0.00000,0.00000
0.00000,-0.00000,0.00000,-0.20000,0.00000,0.00000,0.00000,0.00000,0.00000,-1.00000,-1.00000,0.00000,0.00000
0.00000,-0.00000,0.00000,-0.20000,0.00000,0.00000,0.00000,0.00000,0.00000,-1.00000,-1.00000,0.00000,0.00000
0.00000,-0.00000,0.00000,-0.20000,0.00000,0.00000,0.00000,0.00000,0.00000,-1.00000,-1.00000,0.00000,0.00000
0.00000,-0.00000,0.00000,-0.20000,0.00000,0.00000,0.00000,0.00000,0.00000,-1.00000,-1.00000,0.00000,0.00000
0.00000,-0.00000,0.00000,-0.20000,0.00000,0.00000,0.00000,0.00000,0.00000,-1.00000,-1.00000,0.00000,0.00000
0.00000,-0.00000,0.00000,-0.20000,0.00000,0.00000,0.00000,0.00000,0.00000,-1.00000,-1.00000,0.00000,0.00000
0.00000,-0.00000,0.00000,-0.20000,0.00000,0.00000,0.00000,0.00000,0.00000,-1.00000,-1.00000,0.00000,0.00000
0.00000,-0.00000,0.00000,-0.20000,0.00000,0.00000,0.00000,0.00000,0.00000,-1.00000,-1.00000,0.00000,0.00000
0.00000,-0.00000,0.00000,-0.20000,0.00000,0.00000,0.00000,0.00000,0.00000,-1.00000,-1.00000,0.00000,0.00000
0.00000,-0.00000,0.00000,-0.20000,0.00000,0.00000,0.00000,0.00000,0.00000,-1.00000,-1.00000,0.00000,0.00000
0.00000,-0.00000,0.00000,-0.20000,0.00000,0.00000,0.00000,0.00000,0.00000,-1.00000,-1.00000,0.00000,0.00000
0.00000,-0.00000,0.00000,-0.20000,0.00000,0.00000,0.00000,0.00000,0.00000,-1.00000,-1.00000,0.00000,0.00000
0.00000,-0.00000,0.00000,-0.20000,0.00000,0.00000,0.00000,0.00000,0.00000,-1.00000,-1.00000,0.00000,0.00000
0.00000,-0.00000,0.00000,-0.20000,0.00000,0.00000,0.00000,0.00000,0.00000,-1.00000,-1.00000,0.00000,0.00000
0.00000,-0.00000,0.00000,-0.20000,0.00000,0.00000,0.00000,0.00000,0.00000,-1.00000,-1.00000,0.00000,0.00000
0.00000,-0.00000,0.00000,-0.20000,0.00000,0.00000,0.00000,0.00000,0.00000,-1.00000,-1.00000,0.00000,0.00000
0.00880,-0.00880,0.00000,-0.20000,0.00000,0.00000,0.00000,0.00000,0.00000,-1.00000,-1.00000,0.00000,0.00000
0.00880,-0.00880,0.00000,-0.20000,0.00000,0.00000,0.00000,0.00000,0.00000,-1.00000,-1.00000,0.00000,0.00000
0.00880,-0.00880,0.00000,-0.20000,0.00000,0.00000,0.00000,0.00000,0.00000,-1.00000,-1.00000,0.00000,0.00000
0.00880,-0.00880,0.00000,-0.20000,0.00000,0.00000,0.00000,0.00000,0.00000,-1.00000,-1.00000,0.00000,0.00000
0.00880,-0.00880,0.00000,-0.20000,0.00000,0.00000,0.00000,0.00000,0.00000,-1.00000,-1.00000,0.00000,0.00000
0.00880,-0.00880,0.00000,-0.20000,0.00000,0.00000,0.00000,0.00000,0.00000,-1.00000,-1.00000,0.00000,0.00000
0.00880,-0.00880,0.00000,-0.20000,0.00000,0.00000,0.00000,0.00000,0.00000,-1.00000,-1.00000,0.00000,0.00000
0.00880,-0.00880,0.00000,-0.20000,0.00000,0.00000,0.00000,0.00000,0.00000,-1.00000,-1.00000,0.00000,0.00000
0.00880,-0.00880,0.00000,-0.20000,0.00000,0.00000,0.00000,0.00000,0.00000,-1.00000,-1.00000,0.00000,0.00000
0.00880,-0.00880,0.00000,-0.20000,0.00000,0.00000,0.00000,0.00000,0.00000,-1.00000,-1.00000,0.00000,0.00000
0.00880,-0.00880,0.00000,-0.20000,0.00000,0.00000,0.00000,0.00000,0.00000,-1.00000,-1.00000,0.00000,0.00000
0.00880,-0.00880,0.00000,-0.20000,0.00000,0.00000,0.00000,0.00000,0.00000,-1.00000,-1.00000,0.00000,0.00000
0.00880,-0.00880,0.00000,-0.20000,0.00000,0.00000,0.00000,0.00000,0.00000,-1.00000,-1.00000,0.00000,0.00000
0.00880,-0.00880,0.00000,-0.20000,0.00000,0.00000,0.00000,0.00000,0.00000,-1.00000,-1.00000,0.00000,0.00000
0.00880,-0.00880,0.00000,-0.20000,0.00000,0.00000,0.00000,0.00000,0.00000,-1.00000,-1.00000,0.00000,0.00000
0.00880,-0.00880,0.00000,-0.20000,0.00000,0.00000,0.00000,0.00000,0.00000,-1.00000,-1.00000,0.00000,0.00000
0.00880,-0.00880,0.00000,-0.20000,0.00000,0.00000,0.00000,0.00000,0.00000,-1.00000,-1.00000,0.00000,0.00000
0.00880,-0.00880,0.00000,-0.20000,0.00000,0.00000,0.00000,0.00000,0.00000,-1.00000,-1.00000,0.00000,0.00000
0.00880,-0.00880,0.00000,-0.20000,0.00000,0.00000,0.00000,0.00000,0.00000,-1.00000,-1.00000,0.00000,0.00000
0.00880,-0.00880,0.00000,-0.20000,0.00000,0.00000,0.00000,0.00000,0.00000,-1.00000,-1.00000,0.00000,0.00000
0.00880,-0.00880,0.00000,-0.20000,0.00000,0.00000,0.00000,0.00000,0.00000,-1.00000,-1.00000,0.00000,0.00000
0.00880,-0.00880,0.00000,-0.20000,0.00000,0.00000,0.00000,0.00000,0.00000,-1.00000,-1.00000,0.00000,0.00000
0.00880,-0.00880,0.00000,-0.20000,0.00000,0.00000,0.00000,0.00000,0.00000,-1.00000,-1.00000,0.00000,0.00000
0.00880,-0.00880,0.00000,-0.20000,0.00000,0.00000,0.00000,0.00000,0.00000,-1.00000,-1.00000,0.00000,0.00000
0.00880,-0.00880,0.00000,-0.20000,0.00000,0.00000,0.00000,0.00000,0.00000,-1.00000,-1.00000,0.00000,0.00000
0.00880,-0.00880,0.00000,-0.20000,0.00000,0.00000,0.00000,0.00000,0.00000,-1.00000,-1.00000,0.00000,0.00000
0.00880,-0.00880,0.00000,-0.20000,0.00000,0.00000,0.00000,0.00000,0.00000,-1.00000,-1.00000,0.00000,0.00000
0.00880,-0.00880,0.00000,-0.20000,0.00000,0.00000,0.00000,0.00000,0.00000,-1.00000,-1.00000,0.00000,0.00000
0.00880,-0.00880,0.00000,-0.20000,0.00000,0.00000,0.00000,0.00000,0.00000,-1.00000,-1.00000,0.00000,0.00000
0.00880,-0.00880,0.00000,-0.20000,0.00000,0.00000,0.00000,0.00000,0.00000,-1.00000,-1.00000,0.00000,0.00000
-0.01000,-0.01000,0.00000,-0.20000,0.00000,0.00000,0.00000,0.00000,0.00000,-1.00000,-1.00000,0.00000,0.00000
-0.01000,-0.01000,-0.00741,-0.20800,0.01552,0.01057,-0.00932,0.02000,0.00000,-1.00000,-1.00000,0.00000,0.00000
-0.01000,-0.01000,-0.01482,-0.21600,0.03104,0.02113,-0.01864,0.04000,0.00000,-1.00000,-1.00000,0.00000,0.00000
-0.01000,-0.01000,-0.02224,-0.22400,0.04656,0.03170,-0.02797,0.06000,0.00000,-1.00000,-1.00000,0.00000,0.00000
-0.01000,-0.01000,-0.02965,-0.23200,0.06207,0.04227,-0.03729,0.08000,0.00000,-1.00000,-1.00000,0.00000,0.00000
-0.01000,-0.01000,-0.03706,-0.24000,0.07759,0.05284,-0.04661,0.10000,0.00000,-1.00000,-1.00000,0.00000,0.00000
-0.01000,-0.01000,-0.04447,-0.24800,0.09311,0.06340,-0.05593,0.12000,0.00000,-1.00000,-1.00000,0.00000,0.00000
-0.01000,-0.01000,-0.05188,-0.25600,0.10863,0.07397,-0.06525,0.14000,0.00000,-1.00000,-1.00000,0.00000,0.00000
-0.01000,-0.01000,-0.05930,-0.26400,0.12415,0.08454,-0.07457,0.16000,0.00000,-1.00000,-1.00000,0.00000,0.00000
-0.01000,-0.01000,-0.06671,-0.27200,0.13967,0.09510,-0.08390,0.18000,0.00000,-1.00000,-1.00000,0.00000,0.00000
-0.01000,-0.01000,-0.07412,-0.28000,0.15519,0.10567,-0.09322,0.20000,0.00000,-1.00000,-1.00000,0.00000,0.00000
-0.01000,-0.01000,-0.08153,-0.28800,0.17070,0.11624,-0.10254,0.22000,0.00000,-1.00000,-1.00000,0.00000,0.00000
-0.01000,-0.01000,-0.08895,-0.29600,0.18622,0.12681,-0.11186,0.24000,0.00000,-1.00000,-1.00000,0.00000,0.00000
-0.01000,-0.01000,-0.09636,-0.30400,0.20174,0.13737,-0.12118,0.26000,0.00000,-1.00000,-1.00000,0.00000,0.00000
-0.01000,-0.01000,-0.10377,-0.31200,0.21726,0.14794,-0.13051,0.28000,0.00000,-1.00000,-1.00000,0.00000,0.00000
-0.01000,-0.01000,-0.11118,-0.32000,0.23278,0.15851,-0.13983,0.30000,0.00000,-1.00000,-1.00000,0.00000,0.00000
-0.01000,-0.01000,-0.11859,-0.32800,0.24830,0.16908,-0.14915,0.32000,0.00000,-1.00000,-1.00000,0.00000,0.00000
-0.01000,-0.01000,-0.12601,-0.33600,0.26382,0.17964,-0.15847,0.34000,0.00000,-1.00000,-1.00000,0.00000,0.00000
-0.01000,-0.01000,-0.13342,-0.34400,0.27933,0.19021,-0.16779,0.36000,0.00000,-1.00000,-1.00000,0.00000,0.00000
-0.01000,-0.01000,-0.14083,-0.35200,0.29485,0.20078,-0.17711,0.38000,0.00000,-1.00000,-1.00000,0.00000,0.00000
-0.01000,-0.01000,-0.14824,-0.36000,0.31037,0.21134,-0.18644,0.40000,0.00000,-1.00000,-1.00000,0.00000,0.00000
-0.01000,-0.01000,-0.15565,-0.36800,0.32589,0.22191,-0.19576,0.42000,0.00000,-1.00000,-1.00000,0.00000,0.00000
-0.01000,-0.01000,-0.16307,-0.37600,0.34141,0.23248,-0.20508,0.44000,0.00000,-1.00000,-1.00000,0.00000,0.00000
-0.01000,-0.01000,-0.17048,-0.38400,0.35693,0.24305,-0.21440,0.46000,0.00000,-1.00000,-1.00000,0.00000,0.00000
-0.01000,-0.01000,-0.17789,-0.39200,0.37245,0.25361,-0.22372,0.48000,0.00000,-1.00000,-1.00000,0.00000,0.00000
-0.01000,-0.01000,-0.18530,-0.40000,0.38797,0.26418,-0.23305,0.50000,0.00000,-1.00000,-1.00000,0.00000,0.00000
-0.01000,-0.01000,-0.19271,-0.40800,0.40348,0.27475,-0.24237,0.52000,0.00000,-1.00000,-1.00000,0.00000,0.00000
-0.01000,-0.01000,-0.20013,-0.41600,0.41900,0.28531,-0.25169,0.54000,0.00000,-1.00000,-1.00000,0.00000,0.00000
-0.01000,-0.01000,-0.20754,-0.42400,0.43452,0.29588,-0.26101,0.56000,0.00000,-1.00000,-1.00000,0.00000,0.00000
-0.01000,-0.01000,-0.21495,-0.43200,0.45004,0.30645,-0.27033,0.58000,0.00000,-1.00000,-1.00000,0.00000,0.00000
-0.01000,-0.01000,-0.22236,-0.44000,0.46556,0.31702,-0.27965,0.60000,0.00000,-1.00000,-1.00000,0.00000,0.00000
-0.01000,-0.01000,-0.22978,-0.44800,0.48108,0.32758,-0.28898,0.62000,0.00000,-1.00000,-1.00000,0.00000,0.00000
-0.01000,-0.01000,-0.23719,-0.45600,0.49660,0.33815,-0.29830,0.64000,0.00000,-1.00000,-1.00000,0.00000,0.00000
-0.01000,-0.01000,-0.24460,-0.46400,0.51211,0.34872,-0.30762,0.66000,0.00000,-1.00000,-1.00000,0.00000,0.00000
-0.01000,-0.01000,-0.25201,-0.47200,0.52763,0.35928,-0.31694,0.68000,0.00000,-1.00000,-1.00000,0.00000,0.00000
-0.01000,-0.01000,-0.25942,-0.48000,0.54315,0.36985,-0.32626,0.70000,0.00000,-1.00000,-1.00000,0.00000,0.00000
-0.01000,-0.01000,-0.26684,-0.48800,0.55867,0.38042,-0.33558,0.72000,0.00000,-1.00000,-1.00000,0.00000,0.00000
-0.01000,-0.01000,-0.27425,-0.49600,0.57419,0.39099,-0.34491,0.74000,0.00000,-1.00000,-1.00000,0.00000,0.00000
-0.01000,-0.01000,-0.28166,-0.50400,0.58971,0.40155,-0.35423,0.76000,0.00000,-1.00000,-1.00000,0.00000,0.00000
-0.01000,-0.01000,-0.28907,-0.51200,0.60523,0.41212,-0.36355,0.78000,0.00000,-1.00000,-1.00000,0.00000,0.00000
-0.01000,-0.01000,-0.29648,-0.52000,0.62074,0.42269,-0.37287,0.80000,0.00000,-1.00000,-1.00000,0.00000,0.00000
-0.01000,-0.01000,-0.30390,-0.52800,0.63626,0.43326,-0.38219,0.82000,0.00000,-1.00000,-1.00000,0.00000,0.00000
-0.01000,-0.01000,-0.31131,-0.53600,0.65178,0.44382,-0.39152,0.84000,0.00000,-1.00000,-1.00000,0.00000,0.00000
-0.01000,-0.01000,-0.31872,-0.54400,0.66730,0.45439,-0.40084,0.86000,0.00000,-1.00000,-1.00000,0.00000,0.00000
-0.01000,-0.01000,-0.32613,-0.55200,0.68282,0.46496,-0.41016,0.88000,0.00000,-1.00000,-1.00000,0.00000,0.00000
-0.01000,-0.01000,-0.33354,-0.56000,0.69834,0.47552,-0.41948,0.90000,0.00000,-1.00000,-1.00000,0.00000,0.00000
-0.01000,-0.01000,-0.34096,-0.56800,0.71386,0.48609,-0.42880,0.92000,0.00000,-1.00000,-1.00000,0.00000,0.00000
-0.01000,-0.01000,-0.34837,-0.57600,0.72937,0.49666,-0.43812,0.94000,0.00000,-1.00000,-1.00000,0.00000,0.00000
-0.01000,-0.01000,-0.35578,-0.58400,0.74489,0.50723,-0.44745,0.96000,0.00000,-1.00000,-1.00000,0.00000,0.00000
-0.01000,-0.01000,-0.36319,-0.59200,0.76041,0.51779,-0.45677,0.98000,0.00000,-1.00000,-1.00000,0.00000,0.00000
-0.01000,-0.01000,-0.37061,-0.60000,0.77593,0.52836,-0.46609,1.00000,0.00000,-1.00000,-1.00000,0.00000,0.00000
-0.01000,-0.01000,-0.37802,-0.60800,0.79145,0.53893,-0.47541,1.02000,0.00000,-1.00000,-1.00000,0.00000,0.00000
-0.01000,-0.01000,-0.38543,-0.61600,0.80697,0.54949,-0.48473,1.04000,0.00000,-1.00000,-1.00000,0.00000,0.00000
-0.01000,-0.01000,-0.39284,-0.62400,0.82249,0.56006,-0.49406,1.06000,0.00000,-1.00000,-1.00000,0.00000,0.00000
-0.01000,-0.01000,-0.40025,-0.63200,0.83800,0.57063,-0.50338,1.08000,0.00000,-1.00000,-1.00000,0.00000,0.00000
-0.01000,-0.01000,-0.40767,-0.64000,0.85352,0.58120,-0.51270,1.10000,0.00000,-1.00000,-1.00000,0.00000,0.00000
-0.01000,-0.01000,-0.41508,-0.64800,0.86904,0.59176,-0.52202,1.12000,0.00000,-1.00000,-1.00000,0.00000,0.00000
-0.01000,-0.01000,-0.42249,-0.65600,0.88456,0.60233,-0.53134,1.14000,0.00000,-1.00000,-1.00000,0.00000,0.00000
-0.01000,-0.01000,-0.42990,-0.66400,0.90008,0.61290,-0.54066,1.16000,0.00000,-1.00000,-1.00000,0.00000,0.00000
-0.01000,-0.01000,-0.43731,-0.67200,0.91560,0.62346,-0.54999,1.18000,0.00000,-1.00000,-1.00000,0.00000,0.00000
-0.01000,-0.01000,-0.44473,-0.68000,0.93112,0.63403,-0.55931,1.20000,0.00000,-1.00000,-1.00000,0.00000,0.00000
-0.01000,-0.01000,-0.45214,-0.68800,0.94663,0.64460,-0.56863,1.22000,0.00000,-1.00000,-1.00000,0.00000,0.00000
-0.01000,-0.01000,-0.45955,-0.69600,0.96215,0.65517,-0.57795,1.24000,0.00000,-1.00000,-1.00000,0.00000,0.00000
-0.01000,-0.01000,-0.46696,-0.70400,0.97767,0.66573,-0.58727,1.26000,0.00000,-1.00000,-1.00000,0.00000,0.00000
-0.01000,-0.01000,-0.47437,-0.71200,0.99319,0.67630,-0.59660,1.28000,0.00000,-1.00000,-1.00000,0.00000,0.00000
-0.01000,-0.01000,-0.48179,-0.72000,1.00871,0.68687,-0.60592,1.30000,0.00000,-1.00000,-1.00000,0.00000,0.00000
-0.01000,-0.01000,-0.48920,-0.72800,1.02423,0.69744,-0.61524,1.32000,0.00000,-1.00000,-1.00000,0.00000,0.00000
-0.01000,-0.01000,-0.49661,-0.73600,1.03975,0.70800,-0.62456,1.34000,0.00000,-1.00000,-1.00000,0.00000,0.00000
-0.01000,-0.01000,-0.50402,-0.74400,1.05526,0.71857,-0.63388,1.36000,0.00000,-1.00000,-1.00000,0.00000,0.00000
-0.01000,-0.01000,-0.51143,-0.75200,1.07078,0.72914,-0.64320,1.38000,0.00000,-1.00000,-1.00000,0.00000,0.00000
-0.01000,-0.01000,-0.51885,-0.76000,1.08630,0.73970,-0.65253,1.40000,0.00000,-1.00000,-1.00000,0.00000,0.00000
-0.01000,-0.01000,-0.52626,-0.76800,1.10182,0.75027,-0.66185,1.42000,0.00000,-1.00000,-1.00000,0.00000,0.00000
-0.01000,-0.01000,-0.53367,-0.77600,1.11734,0.76084,-0.67117,1.44000,0.00000,-1.00000,-1.00000,0.00000,0.00000
-0.01000,-0.01000,-0.54108,-0.78400,1.13286,0.77141,-0.68049,1.46000,0.00000,-1.00000,-1.00000,0.00000,0.00000
-0.01000,-0.01000,-0.54850,-0.79200,1.14838,0.78197,-0.68981,1.48000,0.00000,-1.00000,-1.00000,0.00000,0.00000
-0.01000,-0.01000,-0.55591,-0.80000,1.16390,0.79254,-0.69914,1.50000,0.00000,-1.00000,-1.00000,0.00000,0.00000
-0.01000,-0.01000,-0.56332,-0.80800,1.17941,0.80311,-0.70846,1.52000,0.00000,-1.00000,-1.00000,0.00000,0.00000
-0.01000,-0.01000,-0.57073,-0.81600,1.19493,0.81367,-0.71778,1.54000,0.00000,-1.00000,-1.00000,0.00000,0.00000
-0.01000,-0.01000,-0.57814,-0.82400,1.21045,0.82424,-0.72710,1.56000,0.00000,-1.00000,-1.00000,0.00000,0.00000
-0.01000,-0.01000,-0.58556,-0.83200,1.22597,0.83481,-0.73642,1.58000,0.00000,-1.00000,-1.00000,0.00000,0.00000
-0.01000,-0.01000,-0.59297,-0.84000,1.24149,0.84538,-0.74574,1.60000,0.00000,-1.00000,-1.00000,0.00000,0.00000
-0.01000,-0.01000,-0.60038,-0.84800,1.25701,0.85594,-0.75507,1.62000,0.00000,-1.00000,-1.00000,0.00000,0.00000
-0.01000,-0.01000,-0.60779,-0.85600,1.27253,0.86651,-0.76439,1.64000,0.00000,-1.00000,-1.00000,0.00000,0.00000
-0.01000,-0.01000,-0.61520,-0.86400,1.28804,0.87708,-0.77371,1.66000,0.00000,-1.00000,-1.00000,0.00000,0.00000
-0.01000,-0.01000,-0.62262,-0.87200,1.30356,0.88764,-0.78303,1.68000,0.00000,-1.00000,-1.00000,0.00000,0.00000
-0.01000,-0.01000,-0.63003,-0.88000,1.31908,0.89821,-0.79235,1.70000,0.00000,-1.00000,-1.00000,0.00000,0.00000
-0.01000,-0.01000,-0.63744,-0.88800,1.33460,0.90878,-0.80167,1.72000,0.00000,-1.00000,-1.00000,0.00000,0.00000
-0.01000,-0.01000,-0.64485,-0.89600,1.35012,0.91935,-0.81100,1.74000,0.00000,-1.00000,-1.00000,0.00000,0.00000
-0.01000,-0.01000,-0.65226,-0.90400,1.36564,0.92991,-0.82032,1.76000,0.00000,-1.00000,-1.00000,0.00000,0.00000
-0.01000,-0.01000,-0.65968,-0.91200,1.38116,0.94048,-0.82964,1.78000,0.00000,-1.00000,-1.00000,0.00000,0.00000
-0.01000,-0.01000,-0.66709,-0.92000,1.39667,0.95105,-0.83896,1.80000,0.00000,-1.00000,-1.00000,0.00000,0.00000
-0.01000,-0.01000,-0.67450,-0.92800,1.41219,0.96162,-0.84828,1.82000,0.00000,-1.00000,-1.00000,0.00000,0.00000
-0.01000,-0.01000,-0.68191,-0.93600,1.42771,0.97218,-0.85761,1.84000,0.00000,-1.00000,-1.00000,0.00000,0.00000
-0.01000,-0.01000,-0.68933,-0.94400,1.44323,0.98275,-0.86693,1.86000,0.00000,-1.00000,-1.00000,0.00000,0.00000
-0.01000,-0.01000,-0.69674,-0.95200,1.45875,0.99332,-0.87625,1.88000,0.00000,-1.00000,-1.00000,0.00000,0.00000
-0.01000,-0.01000,-0.70415,-0.96000,1.47427,1.00388,-0.88557,1.90000,0.00000,-1.00000,-1.00000,0.00000,0.00000
-0.01000,-0.01000,-0.71156,-0.96800,1.48979,1.01445,-0.89489,1.92000,0.00000,-1.00000,-1.00000,0.00000,0.00000
-0.01000,-0.01000,-0.71897,-0.97600,1.50530,1.02502,-0.90421,1.94000,0.00000,-1.00000,-1.00000,0.00000,0.00000
-0.01000,-0.01000,-0.72639,-0.98400,1.52082,1.03559,-0.91354,1.96000,0.00000,-1.00000,-1.00000,0.00000,0.00000
-0.01000,-0.01000,-0.73380,-0.99200,1.53634,1.04615,-0.92286,1.98000,0.00000,-1.00000,-1.00000,0.00000,0.00000
-0.01000,-0.01000,-0.74121,-1.00000,1.55186,1.05672,-0.93218,2.00000,0.00000,-1.00000,-1.00000,0.00000,0.00000
-0.01000,-0.01000,-0.74121,-1.00000,1.55186,1.05672,-0.93218,2.00000,0.00000,-1.00000,-1.00000,0.00000,0.00000
-0.01000,-0.01000,-0.74121,-1.00000,1.55186,1.05672,-0.93218,2.00000,0.00000,-1.00000,-1.00000,0.00000,0.00000
-0.01000,-0.01000,-0.74121,-1.00000,1.55186,1.05672,-0.93218,2.00000,0.00000,-1.00000,-1.00000,0.00000,0.00000
-0.01000,-0.01000,-0.74121,-1.00000,1.55186,1.05672,-0.93218,2.00000,0.00000,-1.00000,-1.00000,0.00000,0.00000
-0.01000,-0.01000,-0.74121,-1.00000,1.55186,1.05672,-0.93218,2.00000,0.00000,-1.00000,-1.00000,0.00000,0.00000
-0.01000,-0.01000,-0.74121,-1.00000,1.55186,1.05672,-0.93218,2.00000,0.00000,-1.00000,-1.00000,0.00000,0.00000
-0.01000,-0.01000,-0.74121,-1.00000,1.55186,1.05672,-0.93218,2.00000,0.00000,-1.00000,-1.00000,0.00000,0.00000
-0.01000,-0.01000,-0.74121,-1.00000,1.55186,1.05672,-0.93218,2.00000,0.00000,-1.00000,-1.00000,0.00000,0.00000
-0.01000,-0.01000,-0.74121,-1.00000,1.55186,1.05672,-0.93218,2.00000,0.00000,-1.00000,-1.00000,0.00000,0.00000
-0.01000,-0.01000,-0.74121,-1.00000,1.55186,1.05672,-0.93218,2.00000,0.00000,-1.00000,-1.00000,0.00000,0.00000
-0.01000,-0.01000,-0.74121,-1.00000,1.55186,1.05672,-0.93218,2.00000,0.00000,-1.00000,-1.00000,0.00000,0.00000
-0.01000,-0.01000,-0.74121,-1.00000,1.55186,1.05672,-0.93218,2.00000,0.00000,-1.00000,-1.00000,0.00000,0.00000
-0.01000,-0.01000,-0.74121,-1.00000,1.55186,1.05672,-0.93218,2.00000,0.00000,-1.00000,-1.00000,0.00000,0.00000
-0.01000,-0.01000,-0.74121,-1.00000,1.55186,1.05672,-0.93218,2.00000,0.00000,-1.00000,-1.00000,0.00000,0.00000
-0.01000,-0.01000,-0.74121,-1.00000,1.55186,1.05672,-0.93218,2.00000,0.00000,-1.00000,-1.00000,0.00000,0.00000
-0.01000,-0.01000,-0.74121,-1.00000,1.55186,1.05672,-0.93218,2.00000,0.00000,-1.00000,-1.00000,0.00000,0.00000
-0.01000,-0.01000,-0.74121,-1.00000,1.55186,1.05672,-0.93218,2.00000,0.00000,-1.00000,-1.00000,0.00000,0.00000
-0.01000,-0.01000,-0.74121,-1.00000,1.55186,1.05672,-0.93218,2.00000,0.00000,-1.00000,-1.00000,0.00000,0.00000
-0.01000,-0.01000,-0.74121,-1.00000,1.55186,1.05672,-0.93218,2.00000,0.00000,-1.00000,-1.00000,0.00000,0.00000
-0.01000,-0.01000,-0.74121,-1.00000,1.55186,1.05672,-0.93218,2.00000,0.00000,-1.00000,-1.00000,0.00000,0.00000
-0.01000,-0.01000,-0.74121,-1.00000,1.55186,1.05672,-0.93218,2.00000,0.00000,-1.00000,-1.00000,0.00000,0.00000
-0.01000,-0.01000,-0.74121,-1.00000,1.55186,1.05672,-0.93218,2.00000,0.00000,-1.00000,-1.00000,0.00000,0.00000
-0.01000,-0.01000,-0.74121,-1.00000,1.55186,1.05672,-0.93218,2.00000,0.00000,-1.00000,-1.00000,0.00000,0.00000
-0.01000,-0.01000,-0.74121,-1.00000,1.55186,1.05672,-0.93218,2.00000,0.00000,-1.00000,-1.00000,0.00000,0.00000
-0.01000,-0.01000,-0.74121,-1.00000,1.55186,1.05672,-0.93218,2.00000,0.00000,-1.00000,-1.00000,0.00000,0.00000
-0.01000,-0.01000,-0.74121,-1.00000,1.55186,1.05672,-0.93218,2.00000,0.00000,-1.00000,-1.00000,0.00000,0.00000
-0.01000,-0.01000,-0.74121,-1.00000,1.55186,1.05672,-0.93218,2.00000,0.00000,-1.00000,-1.00000,0.00000,0.00000
-0.01000,-0.01000,-0.74121,-1.00000,1.55186,1.05672,-0.93218,2.00000,0.00000,-1.00000,-1.00000,0.00000,0.00000
-0.01000,-0.01000,-0.74121,-1.00000,1.55186,1.05672,-0.93218,2.00000,0.00000,-1.00000,-1.00000,0.00000,0.00000
-0.01000,-0.01000,-0.74121,-1.00000,1.55186,1.05672,-0.93218,2.00000,0.00000,-1.00000,-1.00000,0.00000,0.00000
-0.01000,-0.01000,-0.74121,-1.00000,1.55186,1.05672,-0.93218,2.00000,0.00000,-1.00000,-1.00000,0.00000,0.00000
-0.01000,-0.01000,-0.74121,-1.00000,1.55186,1.05672,-0.93218,2.00000,0.00000,-1.00000,-1.00000,0.00000,0.00000
-0.01000,-0.01000,-0.74121,-1.00000,1.55186,1.05672,-0.93218,2.00000,0.00000,-1.00000,-1.00000,0.00000,0.00000
-0.01000,-0.01000,-0.74121,-1.00000,1.55186,1.05672,-0.93218,2.00000,0.00000,-1.00000,-1.00000,0.00000,0.00000
-0.01000,-0.01000,-0.74121,-1.00000,1.55186,1.05672,-0.93218,2.00000,0.00000,-1.00000,-1.00000,0.00000,0.00000
-0.01000,-0.01000,-0.74121,-1.00000,1.55186,1.05672,-0.93218,2.00000,0.00000,-1.00000,-1.00000,0.00000,0.00000
-0.01000,-0.01000,-0.74121,-1.00000,1.55186,1.05672,-0.93218,2.00000,0.00000,-1.00000,-1.00000,0.00000,0.00000
-0.01000,-0.01000,-0.74121,-1.00000,1.55186,1.05672,-0.93218,2.00000,0.00000,-1.00000,-1.00000,0.00000,0.00000
-0.01000,-0.01000,-0.74121,-1.00000,1.55186,1.05672,-0.93218,2.00000,0.00000,-1.00000,-1.00000,0.00000,0.00000
-0.01000,-0.01000,-0.74121,-1.00000,1.55186,1.05672,-0.93218,2.00000,0.00000,-1.00000,-1.00000,0.00000,0.00000
-0.01000,-0.01000,-0.74121,-1.00000,1.55186,1.05672,-0.93218,2.00000,0.00000,-1.00000,-1.00000,0.00000,0.00000
-0.01000,-0.01000,-0.74121,-1.00000,1.55186,1.05672,-0.93218,2.00000,0.00000,-1.00000,-1.00000,0.00000,0.00000
-0.01000,-0.01000,-0.74121,-1.00000,1.55186,1.05672,-0.93218,2.00000,0.00000,-1.00000,-1.00000,0.00000,0.00000
-0.01000,-0.01000,-0.74121,-1.00000,1.55186,1.05672,-0.93218,2.00000,0.00000,-1.00000,-1.00000,0.00000,0.00000
-0.01000,-0.01000,-0.74121,-1.00000,1.55186,1.05672,-0.93218,2.00000,0.00000,-1.00000,-1.00000,0.00000,0.00000
-0.01000,-0.01000,-0.74121,-1.00000,1.55186,1.05672,-0.93218,2.00000,0.00000,-1.00000,-1.00000,0.00000,0.00000
-0.01000,-0.01000,-0.74121,-1.00000,1.55186,1.05672,-0.93218,2.00000,0.00000,-1.00000,-1.00000,0.00000,0.00000
-0.01000,-0.01000,-0.74121,-1.00000,1.55186,1.05672,-0.93218,2.00000,0.00000,-1.00000,-1.00000,0.00000,0.00000
-0.01000,-0.01000,-0.74121,-1.00000,1.55186,1.05672,-0.93218,2.00000,0.00000,-1.00000,-1.00000,0.00000,0.00000
-0.01000,-0.01000,-0.74121,-1.00000,1.55186,1.05672,-0.93218,2.00000,0.00000,-1.00000,-1.00000,0.00000,0.00000
-0.01000,-0.01000,-0.74121,-1.00000,1.55186,1.05672,-0.93218,2.00000,0.00000,-1.00000,-1.00000,0.00000,0.00000
-0.01000,-0.01000,-0.74121,-1.00000,1.55186,1.05672,-0.93218,2.00000,0.00000,-1.00000,-1.00000,0.00000,0.00000
-0.01000,-0.01000,-0.74121,-1.00000,1.55186,1.05672,-0.93218,2.00000,0.00000,-1.00000,-1.00000,0.00000,0.00000
-0.01000,-0.01000,-0.74121,-1.00000,1.55186,1.05672,-0.93218,2.00000,0.00000,-1.00000,-1.00000,0.00000,0.00000
-0.01000,-0.01000,-0.74121,-1.00000,1.55186,1.05672,-0.93218,2.00000,0.00000,-1.00000,-1.00000,0.00000,0.00000
-0.01000,-0.01000,-0.74121,-1.00000,1.55186,1.05672,-0.93218,2.00000,0.00000,-1.00000,-1.00000,0.00000,0.00000
-0.01000,-0.01000,-0.74121,-1.00000,1.55186,1.05672,-0.93218,2.00000,0.00000,-1.00000,-1.00000,0.00000,0.00000
-0.01000,-0.01000,-0.74121,-1.00000,1.55186,1.05672,-0.93218,2.00000,0.00000,-1.00000,-1.00000,0.00000,0.00000
-0.01000,-0.01000,-0.74121,-1.00000,1.55186,1.05672,-0.93218,2.00000,0.00000,-1.00000,-1.00000,0.00000,0.00000
-0.01000,-0.01000,-0.74121,-1.00000,1.55186,1.05672,-0.93218,2.00000,0.00000,-1.00000,-1.00000,0.00000,0.00000
-0.01000,-0.01000,-0.74121,-1.00000,1.55186,1.05672,-0.93218,2.00000,0.00000,-1.00000,-1.00000,0.00000,0.00000
-0.01000,-0.01000,-0.74121,-1.00000,1.55186,1.05672,-0.93218,2.00000,0.00000,-1.00000,-1.00000,0.00000,0.00000
-0.01000,-0.01000,-0.74121,-1.00000,1.55186,1.05672,-0.93218,2.00000,0.00000,-1.00000,-1.00000,0.00000,0.00000
-0.01000,-0.01000,-0.74121,-1.00000,1.55186,1.05672,-0.93218,2.00000,0.00000,-1.00000,-1.00000,0.00000,0.00000
-0.01000,-0.01000,-0.74121,-1.00000,1.55186,1.05672,-0.93218,2.00000,0.00000,-1.00000,-1.00000,0.00000,0.00000
-0.01000,-0.01000,-0.74121,-1.00000,1.55186,1.05672,-0.93218,2.00000,0.00000,-1.00000,-1.00000,0.00000,0.00000
-0.01000,-0.01000,-0.74121,-1.00000,1.55186,1.05672,-0.93218,2.00000,0.00000,-1.00000,-1.00000,0.00000,0.00000
-0.01000,-0.01000,-0.74121,-1.00000,1.55186,1.05672,-0.93218,2.00000,0.00000,-1.00000,-1.00000,0.00000,0.00000
-0.01000,-0.01000,-0.74121,-1.00000,1.55186,1.05672,-0.93218,2.00000,0.00000,-1.00000,-1.00000,0.00000,0.00000
-0.01000,-0.01000,-0.74121,-1.00000,1.55186,1.05672,-0.93218,2.00000,0.00000,-1.00000,-1.00000,0.00000,0.00000
-0.01000,-0.01000,-0.74121,-1.00000,1.55186,1.05672,-0.93218,2.00000,0.00000,-1.00000,-1.00000,0.00000,0.00000
-0.01000,-0.01000,-0.74121,-1.00000,1.55186,1.05672,-0.93218,2.00000,0.00000,-1.00000,-1.00000,0.00000,0.00000
-0.01000,-0.01000,-0.74121,-1.00000,1.55186,1.05672,-0.93218,2.00000,0.00000,-1.00000,-1.00000,0.00000,0.00000
-0.01000,-0.01000,-0.74121,-1.00000,1.55186,1.05672,-0.93218,2.00000,0.00000,-1.00000,-1.00000,0.00000,0.00000
-0.01000,-0.01000,-0.74121,-1.00000,1.55186,1.05672,-0.93218,2.00000,0.00000,-1.00000,-1.00000,0.00000,0.00000
-0.01000,-0.01000,-0.74121,-1.00000,1.55186,1.05672,-0.93218,2.00000,0.00000,-1.00000,-1.00000,0.00000,0.00000
-0.01000,-0.01000,-0.74121,-1.00000,1.55186,1.05672,-0.93218,2.00000,0.00000,-1.00000,-1.00000,0.00000,0.00000
-0.01000,-0.01000,-0.74121,-1.00000,1.55186,1.05672,-0.93218,2.00000,0.00000,-1.00000,-1.00000,0.00000,0.00000
-0.01000,-0.01000,-0.74121,-1.00000,1.55186,1.05672,-0.93218,2.00000,0.00000,-1.00000,-1.00000,0.00000,0.00000
-0.01000,-0.01000,-0.74121,-1.00000,1.55186,1.05672,-0.93218,2.00000,0.00000,-1.00000,-1.00000,0.00000,0.00000
-0.01000,-0.01000,-0.74121,-1.00000,1.55186,1.05672,-0.93218,2.00000,0.00000,-1.00000,-1.00000,0.00000,0.00000
-0.01000,-0.01000,-0.74121,-1.00000,1.55186,1.05672,-0.93218,2.00000,0.00000,-1.00000,-1.00000,0.00000,0.00000
-0.01000,-0.01000,-0.74121,-1.00000,1.55186,1.05672,-0.93218,2.00000,0.00000,-1.00000,-1.00000,0.00000,0.00000
-0.01000,-0.01000,-0.74121,-1.00000,1.55186,1.05672,-0.93218,2.00000,0.00000,-1.00000,-1.00000,0.00000,0.00000
-0.01000,-0.01000,-0.74121,-1.00000,1.55186,1.05672,-0.93218,2.00000,0.00000,-1.00000,-1.00000,0.00000,0.00000
-0.01000,-0.01000,-0.74121,-1.00000,1.55186,1.05672,-0.93218,2.00000,0.00000,-1.00000,-1.00000,0.00000,0.00000
-0.01000,-0.01000,-0.74121,-1.00000,1.55186,1.05672,-0.93218,2.00000,0.00000,-1.00000,-1.00000,0.00000,0.00000
-0.01000,-0.01000,-0.74121,-1.00000,1.55186,1.05672,-0.93218,2.00000,0.00000,-1.00000,-1.00000,0.00000,0.00000
-0.01000,-0.01000,-0.74121,-1.00000,1.55186,1.05672,-0.93218,2.00000,0.00000,-1.00000,-1.00000,0.00000,0.00000
-0.01000,-0.01000,-0.74121,-1.00000,1.55186,1.05672,-0.93218,2.00000,0.00000,-1.00000,-1.00000,0.00000,0.00000
-0.01000,-0.01000,-0.74121,-1.00000,1.55186,1.05672,-0.93218,2.00000,0.00000,-1.00000,-1.00000,0.00000,0.00000
-0.01000,-0.01000,-0.74121,-1.00000,1.55186,1.05672,-0.93218,2.00000,0.00000,-1.00000,-1.00000,0.00000,0.00000
-0.01000,-0.01000,-0.74121,-1.00000,1.55186,1.05672,-0.93218,2.00000,0.00000,-1.00000,-1.00000,0.00000,0.00000
-0.01000,-0.01000,-0.74121,-1.00000,1.55186,1.05672,-0.93218,2.00000,0.00000,-1.00000,-1.00000,0.00000,0.00000
-0.01000,-0.01000,-0.74121,-1.00000,1.55186,1.05672,-0.93218,2.00000,0.00000,-1.00000,-1.00000,0.00000,0.00000
-0.01000,-0.01000,-0.74121,-1.00000,1.55186,1.05672,-0.93218,2.00000,0.00000,-1.00000,-1.00000,0.00000,0.00000
-0.01000,-0.01000,-0.74121,-1.00000,1.55186,1.05672,-0.93218,2.00000,0.00000,-1.00000,-1.00000,0.00000,0.00000
-0.01000,-0.01000,-0.74121,-1.00000,1.55186,1.05672,-0.93218,2.00000,0.00000,-1.00000,-1.00000,0.00000,0.00000
-0.01000,-0.01000,-0.74121,-1.00000,1.55186,1.05672,-0.93218,2.00000,0.00000,-1.00000,-1.00000,0.00000,0.00000
0.00000,-0.00000,-0.74121,-1.00000,1.55186,1.05672,-0.93218,2.00000,0.00000,0.00000,0.00000,0.00000,0.00000
0.00000,-0.00000,-0.74121,-1.00000,1.55186,1.05672,-0.93218,2.00000,0.00000,0.00000,0.00000,0.00000,0.00000
0.00000,-0.00000,-0.74121,-1.00000,1.55186,1.05672,-0.93218,2.00000,0.00000,0.00000,0.00000,0.00000,0.00000
0.00000,-0.00000,-0.74121,-1.00000,1.55186,1.05672,-0.93218,2.00000,0.00000,0.00000,0.00000,0.00000,0.00000
0.00000,-0.00000,-0.74121,-1.00000,1.55186,1.05672,-0.93218,2.00000,0.00000,0.00000,0.00000,0.00000,0.00000
0.00000,-0.00000,-0.74121,-1.00000,1.55186,1.05672,-0.93218,2.00000,0.00000,0.00000,0.00000,0.00000,0.00000
0.00000,-0.00000,-0.74121,-1.00000,1.55186,1.05672,-0.93218,2.00000,0.00000,0.00000,0.00000,0.00000,0.00000
0.00000,-0.00000,-0.74121,-1.00000,1.55186,1.05672,-0.93218,2.00000,0.00000,0.00000,0.00000,0.00000,0.00000
0.00000,-0.00000,-0.74121,-1.00000,1.55186,1.05672,-0.93218,2.00000,0.00000,0.00000,0.00000,0.00000,0.00000
0.00000,-0.00000,-0.74121,-1.00000,1.55186,1.05672,-0.93218,2.00000,0.00000,0.00000,0.00000,0.00000,0.00000
0.00000,-0.00000,-0.74121,-1.00000,1.55186,1.05672,-0.93218,2.00000,0.00000,0.00000,0.00000,0.00000,0.00000
0.00000,-0.00000,-0.74121,-1.00000,1.55186,1.05672,-0.93218,2.00000,0.00000,0.00000,0.00000,0.00000,0.00000
0.00000,-0.00000,-0.74121,-1.00000,1.55186,1.05672,-0.93218,2.00000,0.00000,0.00000,0.00000,0.00000,0.00000
0.00000,-0.00000,-0.74121,-1.00000,1.55186,1.05672,-0.93218,2.00000,0.00000,0.00000,0.00000,0.00000,0.00000
0.00000,-0.00000,-0.74121,-1.00000,1.55186,1.05672,-0.93218,2.00000,0.00000,0.00000,0.00000,0.00000,0.00000
0.00000,-0.00000,-0.74121,-1.00000,1.55186,1.05672,-0.93218,2.00000,0.00000,0.00000,0.00000,0.00000,0.00000
0.00000,-0.00000,-0.74121,-1.00000,1.55186,1.05672,-0.93218,2.00000,0.00000,0.00000,0.00000,0.00000,0.00000
0.00000,-0.00000,-0.74121,-1.00000,1.55186,1.05672,-0.93218,2.00000,0.00000,0.00000,0.00000,0.00000,0.00000
0.00000,-0.00000,-0.74121,-1.00000,1.55186,1.05672,-0.93218,2.00000,0.00000,0.00000,0.00000,0.00000,0.00000
0.00000,-0.00000,-0.74121,-1.00000,1.55186,1.05672,-0.93218,2.00000,0.00000,0.00000,0.00000,0.00000,0.00000
0.00000,-0.00000,-0.74121,-1.00000,1.55186,1.05672,-0.93218,2.00000,0.00000,0.00000,0.00000,0.00000,0.00000
0.00000,-0.00000,-0.74121,-1.00000,1.55186,1.05672,-0.93218,2.00000,0.00000,0.00000,0.00000,0.00000,0.00000
0.00000,-0.00000,-0.74121,-1.00000,1.55186,1.05672,-0.93218,2.00000,0.00000,0.00000,0.00000,0.00000,0.00000
0.00000,-0.00000,-0.74121,-1.00000,1.55186,1.05672,-0.93218,2.00000,0.00000,0.00000,0.00000,0.00000,0.00000
0.00000,-0.00000,-0.74121,-1.00000,1.55186,1.05672,-0.93218,2.00000,0.00000,0.00000,0.00000,0.00000,0.00000
0.00000,-0.00000,-0.74121,-1.00000,1.55186,1.05672,-0.93218,2.00000,0.00000,0.00000,0.00000,0.00000,0.00000
0.00000,-0.00000,-0.74121,-1.00000,1.55186,1.05672,-0.93218,2.00000,0.00000,0.00000,0.00000,0.00000,0.00000
0.00000,-0.00000,-0.74121,-1.00000,1.55186,1.05672,-0.93218,2.00000,0.00000,0.00000,0.00000,0.00000,0.00000
0.00000,-0.00000,-0.74121,-1.00000,1.55186,1.05672,-0.93218,2.00000,0.00000,0.00000,0.00000,0.00000,0.00000
0.00000,-0.00000,-0.74121,-1.00000,1.55186,1.05672,-0.93218,2.00000,0.00000,0.00000,0.00000,0.00000,0.00000
0.01000,0.01000,-0.74121,-1.00000,1.55186,1.05672,-0.93218,2.00000,0.00000,1.00000,1.00000,0.00000,0.00000
0.01000,0.01000,-0.74121,-1.00000,1.55186,1.05672,-0.93218,2.00000,0.00000,1.00000,1.00000,0.00000,0.00000
0.01000,0.01000,-0.74121,-1.00000,1.55186,1.05672,-0.93218,2.00000,0.00000,1.00000,1.00000,0.00000,0.00000
0.01000,0.01000,-0.74121,-1.00000,1.55186,1.05672,-0.93218,2.00000,0.00000,1.00000,1.00000,0.00000,0.00000
0.01000,0.01000,-0.74121,-1.00000,1.55186,1.05672,-0.93218,2.00000,0.00000,1.00000,1.00000,0.00000,0.00000
0.01000,0.01000,-0.74121,-1.00000,1.55186,1.05672,-0.93218,2.00000,0.00000,1.00000,1.00000,0.00000,0.00000
0.01000,0.01000,-0.74121,-1.00000,1.55186,1.05672,-0.93218,2.00000,0.00000,1.00000,1.00000,0.00000,0.00000
0.01000,0.01000,-0.74121,-1.00000,1.55186,1.05672,-0.93218,2.00000,0.00000,1.00000,1.00000,0.00000,0.00000
0.01000,0.01000,-0.74121,-1.00000,1.55186,1.05672,-0.93218,2.00000,0.00000,1.00000,1.00000,0.00000,0.00000
0.01000,0.01000,-0.74121,-1.00000,1.55186,1.05672,-0.93218,2.00000,0.00000,1.00000,1.00000,0.00000,0.00000
0.01000,0.01000,-0.74121,-1.00000,1.55186,1.05672,-0.93218,2.00000,0.00000,1.00000,1.00000,0.00000,0.00000
0.01000,0.01000,-0.74121,-1.00000,1.55186,1.05672,-0.93218,2.00000,0.00000,1.00000,1.00000,0.00000,0.00000
0.01000,0.01000,-0.74121,-1.00000,1.55186,1.05672,-0.93218,2.00000,0.00000,1.00000,1.00000,0.00000,0.00000
0.01000,0.01000,-0.74121,-1.00000,1.55186,1.05672,-0.93218,2.00000,0.00000,1.00000,1.00000,0.00000,0.00000
0.01000,0.01000,-0.74121,-1.00000,1.55186,1.05672,-0.93218,2.00000,0.00000,1.00000,1.00000,0.00000,0.00000
0.01000,0.01000,-0.74121,-1.00000,1.55186,1.05672,-0.93218,2.00000,0.00000,1.00000,1.00000,0.00000,0.00000
0.01000,0.01000,-0.74121,-1.00000,1.55186,1.05672,-0.93218,2.00000,0.00000,1.00000,1.00000,0.00000,0.00000
0.01000,0.01000,-0.74121,-1.00000,1.55186,1.05672,-0.93218,2.00000,0.00000,1.00000,1.00000,0.00000,0.00000
0.01000,0.01000,-0.74121,-1.00000,1.55186,1.05672,-0.93218,2.00000,0.00000,1.00000,1.00000,0.00000,0.00000
0.01000,0.01000,-0.74121,-1.00000,1.55186,1.05672,-0.93218,2.00000,0.00000,1.00000,1.00000,0.00000,0.00000
0.01000,0.01000,-0.74121,-1.00000,1.55186,1.05672,-0.93218,2.00000,0.00000,1.00000,1.00000,0.00000,0.00000
0.01000,0.01000,-0.74121,-1.00000,1.55186,1.05672,-0.93218,2.00000,0.00000,1.00000,1.00000,0.00000,0.00000
0.01000,0.01000,-0.74121,-1.00000,1.55186,1.05672,-0.93218,2.00000,0.00000,1.00000,1.00000,0.00000,0.00000
0.01000,0.01000,-0.74121,-1.00000,1.55186,1.05672,-0.93218,2.00000,0.00000,1.00000,1.00000,0.00000,0.00000
0.01000,0.01000,-0.74121,-1.00000,1.55186,1.05672,-0.93218,2.00000,0.00000,1.00000,1.00000,0.00000,0.00000
0.01000,0.01000,-0.74121,-1.00000,1.55186,1.05672,-0.93218,2.00000,0.00000,1.00000,1.00000,0.00000,0.00000
0.01000,0.01000,-0.74121,-1.00000,1.55186,1.05672,-0.93218,2.00000,0.00000,1.00000,1.00000,0.00000,0.00000
0.01000,0.01000,-0.74121,-1.00000,1.55186,1.05672,-0.93218,2.00000,0.00000,1.00000,1.00000,0.00000,0.00000
0.01000,0.01000,-0.74121,-1.00000,1.55186,1.05672,-0.93218,2.00000,0.00000,1.00000,1.00000,0.00000,0.00000
0.01000,0.01000,-0.74121,-1.00000,1.55186,1.05672,-0.93218,2.00000,0.00000,1.00000,1.00000,0.00000,0.00000
0.00000,0.00000,-0.74121,-1.00000,1.55186,1.05672,-0.93218,2.00000,0.00000,1.00000,1.00000,0.00000,0.00000
0.00000,0.00000,-0.75054,-0.95058,1.52882,1.06900,-0.91354,1.99142,0.00000,1.00000,1.00000,0.00000,0.00000
0.00000,0.00000,-0.75988,-0.90117,1.50579,1.08128,-0.89489,1.98283,0.00000,1.00000,1.00000,0.00000,0.00000
0.00000,0.00000,-0.76921,-0.85175,1.48275,1.09356,-0.87625,1.97425,0.00000,1.00000,1.00000,0.00000,0.00000
0.00000,0.00000,-0.77855,-0.80234,1.45971,1.10585,-0.85761,1.96566,0.00000,1.00000,1.00000,0.00000,0.00000
0.00000,0.00000,-0.78788,-0.75292,1.43667,1.11813,-0.83896,1.95708,0.00000,1.00000,1.00000,0.00000,0.00000
0.00000,0.00000,-0.79721,-0.70351,1.41364,1.13041,-0.82032,1.94849,0.00000,1.00000,1.00000,0.00000,0.00000
0.00000,0.00000,-0.80655,-0.65409,1.39060,1.14269,-0.80167,1.93991,0.00000,1.00000,1.00000,0.00000,0.00000
0.00000,0.00000,-0.81588,-0.60467,1.36756,1.15497,-0.78303,1.93133,0.00000,1.00000,1.00000,0.00000,0.00000
0.00000,0.00000,-0.82521,-0.55526,1.34453,1.16725,-0.76439,1.92274,0.00000,1.00000,1.00000,0.00000,0.00000
0.00000,0.00000,-0.83455,-0.50584,1.32149,1.17953,-0.74574,1.91416,0.00000,1.00000,1.00000,0.00000,0.00000
0.00000,0.00000,-0.84388,-0.45643,1.29845,1.19182,-0.72710,1.90557,0.00000,1.00000,1.00000,0.00000,0.00000
0.00000,0.00000,-0.85322,-0.40701,1.27541,1.20410,-0.70846,1.89699,0.00000,1.00000,1.00000,0.00000,0.00000
0.00000,0.00000,-0.86255,-0.35759,1.25238,1.21638,-0.68981,1.88841,0.00000,1.00000,1.00000,0.00000,0.00000
0.00000,0.00000,-0.87188,-0.30818,1.22934,1.22866,-0.67117,1.87982,0.00000,1.00000,1.00000,0.00000,0.00000
0.00000,0.00000,-0.88122,-0.25876,1.20630,1.24094,-0.65253,1.87124,0.00000,1.00000,1.00000,0.00000,0.00000
0.00000,0.00000,-0.89055,-0.20935,1.18326,1.25322,-0.63388,1.86265,0.00000,1.00000,1.00000,0.00000,0.00000
0.00000,0.00000,-0.89988,-0.15993,1.16023,1.26550,-0.61524,1.85407,0.00000,1.00000,1.00000,0.00000,0.00000
0.00000,0.00000,-0.90922,-0.11052,1.13719,1.27779,-0.59660,1.84548,0.00000,1.00000,1.00000,0.00000,0.00000
0.00000,0.00000,-0.91855,-0.06110,1.11415,1.29007,-0.57795,1.83690,0.00000,1.00000,1.00000,0.00000,0.00000
0.00000,0.00000,-0.92789,-0.01168,1.09112,1.30235,-0.55931,1.82832,0.00000,1.00000,1.00000,0.00000,0.00000
0.00000,0.00000,-0.93722,0.03773,1.06808,1.31463,-0.54066,1.81973,0.00000,1.00000,1.00000,0.00000,0.00000
0.00000,0.00000,-0.94655,0.08715,1.04504,1.32691,-0.52202,1.81115,0.00000,1.00000,1.00000,0.00000,0.00000
0.00000,0.00000,-0.95589,0.13656,1.02200,1.33919,-0.50338,1.80256,0.00000,1.00000,1.00000,0.00000,0.00000
0.00000,0.00000,-0.96522,0.18598,0.99897,1.35147,-0.48473,1.79398,0.00000,1.00000,1.00000,0.00000,0.00000
0.00000,0.00000,-0.97456,0.23540,0.97593,1.36376,-0.46609,1.78539,0.00000,1.00000,1.00000,0.00000,0.00000
0.00000,0.00000,-0.98389,0.28481,0.95289,1.37604,-0.44745,1.77681,0.00000,1.00000,1.00000,0.00000,0.00000
0.00000,0.00000,-0.99322,0.33423,0.92986,1.38832,-0.42880,1.76823,0.00000,1.00000,1.00000,0.00000,0.00000
0.00000,0.00000,-1.00256,0.38364,0.90682,1.40060,-0.41016,1.75964,0.00000,1.00000,1.00000,0.00000,0.00000
0.00000,0.00000,-1.01189,0.43306,0.88378,1.41288,-0.39152,1.75106,0.00000,1.00000,1.00000,0.00000,0.00000
0.00000,0.00000,-1.02122,0.48247,0.86074,1.42516,-0.37287,1.74247,0.00000,1.00000,1.00000,0.00000,0.00000
0.00000,0.00000,-1.03056,0.53189,0.83771,1.43744,-0.35423,1.73389,0.00000,1.00000,1.00000,0.00000,0.00000
0.00000,0.00000,-1.03989,0.58131,0.81467,1.44972,-0.33558,1.72531,0.00000,1.00000,1.00000,0.00000,0.00000
0.00000,0.00000,-1.04923,0.63072,0.79163,1.46201,-0.31694,1.71672,0.00000,1.00000,1.00000,0.00000,0.00000
0.00000,0.00000,-1.05856,0.68014,0.76860,1.47429,-0.29830,1.70814,0.00000,1.00000,1.00000,0.00000,0.00000
0.00000,0.00000,-1.06789,0.72955,0.74556,1.48657,-0.27965,1.69955,0.00000,1.00000,1.00000,0.00000,0.00000
0.00000,0.00000,-1.07723,0.77897,0.72252,1.49885,-0.26101,1.69097,0.00000,1.00000,1.00000,0.00000,0.00000
0.00000,0.00000,-1.08656,0.82838,0.69948,1.51113,-0.24237,1.68238,0.00000,1.00000,1.00000,0.00000,0.00000
0.00000,0.00000,-1.09589,0.87780,0.67645,1.52341,-0.22372,1.67380,0.00000,1.00000,1.00000,0.00000,0.00000
0.00000,0.00000,-1.10523,0.92722,0.65341,1.53569,-0.20508,1.66522,0.00000,1.00000,1.00000,0.00000,0.00000
0.00000,0.00000,-1.11456,0.97663,0.63037,1.54798,-0.18644,1.65663,0.00000,1.00000,1.00000,0.00000,0.00000
0.00000,0.00000,-1.12390,1.02605,0.60733,1.56026,-0.16779,1.64805,0.00000,1.00000,1.00000,0.00000,0.00000
0.00000,0.00000,-1.13323,1.07546,0.58430,1.57254,-0.14915,1.63946,0.00000,1.00000,1.00000,0.00000,0.00000
0.00000,0.00000,-1.14256,1.12488,0.56126,1.58482,-0.13051,1.63088,0.00000,1.00000,1.00000,0.00000,0.00000
0.00000,0.00000,-1.15190,1.17430,0.53822,1.59710,-0.11186,1.62230,0.00000,1.00000,1.00000,0.00000,0.00000
0.00000,0.00000,-1.16123,1.22371,0.51519,1.60938,-0.09322,1.61371,0.00000,1.00000,1.00000,0.00000,0.00000
0.00000,0.00000,-1.17056,1.27313,0.49215,1.62166,-0.07457,1.60513,0.00000,1.00000,1.00000,0.00000,0.00000
0.00000,0.00000,-1.17990,1.32254,0.46911,1.63395,-0.05593,1.59654,0.00000,1.00000,1.00000,0.00000,0.00000
0.00000,0.00000,-1.18923,1.37196,0.44607,1.64623,-0.03729,1.58796,0.00000,1.00000,1.00000,0.00000,0.00000
0.00000,0.00000,-1.19857,1.42137,0.42304,1.65851,-0.01864,1.57937,0.00000,1.00000,1.00000,0.00000,0.00000
0.00000,-0.00000,-1.20790,1.47079,0.40000,1.67079,0.00000,1.57079,0.00000,1.00000,1.00000,0.00000,0.00000
0.00000,-0.00000,-1.20790,1.47079,0.40000,1.67079,0.00000,1.57079,0.00000,1.00000,1.00000,0.00000,0.00000
0.00000,-0.00000,-1.20790,1.47079,0.40000,1.67079,0.00000,1.57079,0.00000,1.00000,1.00000,0.00000,0.00000
0.00000,-0.00000,-1.20790,1.47079,0.40000,1.67079,0.00000,1.57079,0.00000,1.00000,1.00000,0.00000,0.00000
0.00000,-0.00000,-1.20790,1.47079,0.40000,1.67079,0.00000,1.57079,0.00000,1.00000,1.00000,0.00000,0.00000
0.00000,-0.00000,-1.20790,1.47079,0.40000,1.67079,0.00000,1.57079,0.00000,1.00000,1.00000,0.00000,0.00000
0.00000,-0.00000,-1.20790,1.47079,0.40000,1.67079,0.00000,1.57079,0.00000,1.00000,1.00000,0.00000,0.00000
0.00000,-0.00000,-1.20790,1.47079,0.40000,1.67079,0.00000,1.57079,0.00000,1.00000,1.00000,0.00000,0.00000
0.00000,-0.00000,-1.20790,1.47079,0.40000,1.67079,0.00000,1.57079,0.00000,1.00000,1.00000,0.00000,0.00000
0.00000,-0.00000,-1.20790,1.47079,0.40000,1.67079,0.00000,1.57079,0.00000,1.00000,1.00000,0.00000,0.00000
0.00000,-0.00000,-1.20790,1.47079,0.40000,1.67079,0.00000,1.57079,0.00000,1.00000,1.00000,0.00000,0.00000
0.00000,-0.00000,-1.20790,1.47079,0.40000,1.67079,0.00000,1.57079,0.00000,1.00000,1.00000,0.00000,0.00000
0.00000,-0.00000,-1.20790,1.47079,0.40000,1.67079,0.00000,1.57079,0.00000,1.00000,1.00000,0.00000,0.00000
0.00000,-0.00000,-1.20790,1.47079,0.40000,1.67079,0.00000,1.57079,0.00000,1.00000,1.00000,0.00000,0.00000
0.00000,-0.00000,-1.20790,1.47079,0.40000,1.67079,0.00000,1.57079,0.00000,1.00000,1.00000,0.00000,0.00000
0.00000,-0.00000,-1.20790,1.47079,0.40000,1.67079,0.00000,1.57079,0.00000,1.00000,1.00000,0.00000,0.00000
0.00000,-0.00000,-1.20790,1.47079,0.40000,1.67079,0.00000,1.57079,0.00000,1.00000,1.00000,0.00000,0.00000
0.00000,-0.00000,-1.20790,1.47079,0.40000,1.67079,0.00000,1.57079,0.00000,1.00000,1.00000,0.00000,0.00000
0.00000,-0.00000,-1.20790,1.47079,0.40000,1.67079,0.00000,1.57079,0.00000,1.00000,1.00000,0.00000,0.00000
0.00000,-0.00000,-1.20790,1.47079,0.40000,1.67079,0.00000,1.57079,0.00000,1.00000,1.00000,0.00000,0.00000
0.00000,-0.00000,-1.20790,1.47079,0.40000,1.67079,0.00000,1.57079,0.00000,1.00000,1.00000,0.00000,0.00000
0.00000,-0.00000,-1.20790,1.47079,0.40000,1.67079,0.00000,1.57079,0.00000,1.00000,1.00000,0.00000,0.00000
0.00000,-0.00000,-1.20790,1.47079,0.40000,1.67079,0.00000,1.57079,0.00000,1.00000,1.00000,0.00000,0.00000
0.00000,-0.00000,-1.20790,1.47079,0.40000,1.67079,0.00000,1.57079,0.00000,1.00000,1.00000,0.00000,0.00000
0.00000,-0.00000,-1.20790,1.47079,0.40000,1.67079,0.00000,1.57079,0.00000,1.00000,1.00000,0.00000,0.00000
0.00000,-0.00000,-1.20790,1.47079,0.40000,1.67079,0.00000,1.57079,0.00000,1.00000,1.00000,0.00000,0.00000
0.00000,-0.00000,-1.20790,1.47079,0.40000,1.67079,0.00000,1.57079,0.00000,1.00000,1.00000,0.00000,0.00000
0.00000,-0.00000,-1.20790,1.47079,0.40000,1.67079,0.00000,1.57079,0.00000,1.00000,1.00000,0.00000,0.00000
0.00000,-0.00000,-1.20790,1.47079,0.40000,1.67079,0.00000,1.57079,0.00000,1.00000,1.00000,0.00000,0.00000
0.00000,-0.00000,-1.20790,1.47079,0.40000,1.67079,0.00000,1.57079,0.00000,1.00000,1.00000,0.00000,0.00000
